dist/img/icons/weather.svg

<svg width="35" height="35" viewBox="0 0 35 35" fill="none" xmlns="http://www.w3.org/2000/svg">
<g clip-path="url(#clip0_2_13)">
<path d="M12.629 6.50632C13.1953 6.50632 13.6544 6.04722 13.6544 5.48093V3.41613C13.6544 2.84984 13.1953 2.39075 12.629 2.39075C12.0627 2.39075 11.6036 2.84984 11.6036 3.41613V5.48093C11.6036 6.04722 12.0627 6.50632 12.629 6.50632Z" fill="white"/>
<path d="M3.32644 10.2598L1.53823 9.22736C1.04775 8.94403 0.42062 9.11219 0.137544 9.60268C-0.1456 10.0931 0.0224268 10.7202 0.512837 11.0033L2.30105 12.0357C2.79036 12.3184 3.41798 12.1521 3.70173 11.6604C3.98488 11.1699 3.81685 10.5429 3.32644 10.2598Z" fill="white"/>
<path d="M2.30105 21.5934L0.512837 22.6258C0.0224268 22.9089 -0.1456 23.536 0.137544 24.0265C0.422124 24.5194 1.05014 24.6837 1.53823 24.4017L3.32644 23.3693C3.81685 23.0861 3.98488 22.4592 3.70173 21.9687C3.41859 21.4783 2.7916 21.3101 2.30105 21.5934Z" fill="white"/>
<path d="M22.957 12.0357L24.7452 11.0033C25.2356 10.7202 25.4036 10.0931 25.1205 9.60268C24.8373 9.11219 24.2103 8.94403 23.7198 9.22736L21.9316 10.2598C21.4412 10.543 21.2732 11.1699 21.5563 11.6604C21.8409 12.1534 22.4689 12.3177 22.957 12.0357Z" fill="white"/>
<path d="M27.269 18.2702C26.0952 15.3696 23.2479 13.4518 20.1155 13.4653C18.832 10.6073 15.9596 8.61145 12.6289 8.61145C8.10569 8.61145 4.42584 12.2913 4.42584 16.8146C4.42584 19.7165 5.94124 22.2702 8.22147 23.7289C5.79016 27.5699 8.55462 32.6056 13.1031 32.6056C29.2367 32.5887 28.3539 32.6468 28.6349 32.5596C32.2187 32.1554 35.0001 29.1158 35.0001 25.4279C35.0001 21.2165 31.4015 17.9466 27.269 18.2702ZM6.47662 16.8146C6.47662 13.4222 9.23655 10.6623 12.6289 10.6623C14.9166 10.6623 16.9155 11.9181 17.9754 13.7758C14.7353 14.7253 12.4854 17.6834 12.4494 21.0773C11.4308 21.1891 10.4704 21.5696 9.64328 22.1916C7.75625 21.1397 6.47662 19.1241 6.47662 16.8146ZM28.247 30.5372C27.8817 30.5669 18.5766 30.5497 13.1031 30.5548C9.72191 30.5548 8.07425 26.3638 10.5899 24.0665C11.345 23.3769 12.3506 23.01 13.4462 23.1097C14.1072 23.1693 14.6458 22.5974 14.5545 21.9462C14.0792 18.5535 16.7064 15.5158 20.1387 15.5158C22.6779 15.5158 24.9158 17.2249 25.581 19.6721C25.7232 20.195 26.2477 20.5167 26.7781 20.4073C29.9741 19.7463 32.9493 22.1895 32.9493 25.4279C32.9493 28.0772 30.8838 30.3215 28.247 30.5372Z" fill="white"/>
</g>
<defs>
<clipPath id="clip0_2_13">
<rect width="35" height="35" fill="white"/>
</clipPath>
</defs>
</svg>

<svg width="35" height="35" fill="none" xmlns="http://www.w3.org/2000/svg"><g clip-path="url(#a)" fill="#fff"><path d="M12.629 6.506c.566 0 1.025-.459 1.025-1.025V3.416a1.025 1.025 0 0 0-2.05 0v2.065c0 .566.459 1.025 1.025 1.025ZM3.326 10.26 1.538 9.227a1.025 1.025 0 1 0-1.025 1.776L2.3 12.036a1.025 1.025 0 1 0 1.025-1.776ZM2.301 21.593.513 22.626a1.025 1.025 0 1 0 1.025 1.776l1.788-1.033a1.025 1.025 0 1 0-1.025-1.776Zm20.656-9.557 1.788-1.033a1.025 1.025 0 1 0-1.025-1.776l-1.788 1.033a1.025 1.025 0 1 0 1.025 1.776Zm4.312 6.234a7.708 7.708 0 0 0-7.153-4.805c-1.284-2.858-4.156-4.854-7.487-4.854-4.523 0-8.203 3.68-8.203 8.204a8.203 8.203 0 0 0 3.795 6.914c-2.43 3.84.334 8.877 4.882 8.877 16.134-.017 15.25.04 15.532-.046A7.178 7.178 0 0 0 35 25.428c0-4.212-3.599-7.481-7.731-7.158ZM6.477 16.815a6.16 6.16 0 0 1 6.152-6.153 6.155 6.155 0 0 1 5.346 3.114 7.69 7.69 0 0 0-5.526 7.301 5.68 5.68 0 0 0-2.806 1.115 6.156 6.156 0 0 1-3.166-5.377Zm21.77 13.722c-.365.03-9.67.013-15.144.018-3.381 0-5.029-4.191-2.513-6.488a3.69 3.69 0 0 1 2.856-.957c.661.06 1.2-.513 1.109-1.164-.476-3.393 2.151-6.43 5.584-6.43a5.65 5.65 0 0 1 5.442 4.156c.142.523.667.845 1.197.735 3.196-.66 6.171 1.782 6.171 5.02 0 2.65-2.065 4.895-4.702 5.11Z"/></g><defs><clipPath id="a"><path fill="#fff" d="M0 0h35v35H0z"/></clipPath></defs></svg>
